X:37
T:Fashion which the Lasses have, The
T:Am fasan th' aig Caileagan
R:Reel
S:Simon Fraser Collection
N:No.220
O:Scottish
M:C
L:1/8
K:A
c|:AF F/F/F AEEc|AF F/F/F c2 Bc|AF F/F/F AEEA|1 FGAB c2 Bc:|2
FGAB c2 Bf||eAfA cBBf|e<A f>e c2 ea|eAfA cAB<c|AFAB c2 cf|
EAfA cBBf|e<Afe c2 cb|agfa eacA|FGAB cABc||

